;FLAVOR:Marlin
;TIME:1260
;Filament used: 4.32095m
;Layer height: 0.32
;MINX:71.5
;MINY:93
;MINZ:0.32
;MAXX:148.5
;MAXY:127
;MAXZ:27.84
;TARGET_MACHINE.NAME:Creality Ender-3 V3 KE
;Generated with Cura_SteamEngine 5.7.1
M140 S60
M105
M190 S60
M82 ;absolute extrusion mode
M220 S100 ;Reset Feedrate
M221 S100 ;Reset Flowrate

G28 ;Home

G92 E0 ;Reset Extruder
G1 Z2.0 F3000 ;Move Z Axis up
G1 X-2.0 Y20 Z0.28 F5000.0 ;Move to start position
M109 S200
G1 X-2.0 Y145.0 Z0.28 F1500.0 E15 ;Draw the first line
G1 X-1.7 Y145.0 Z0.28 F5000.0 ;Move to side a little
G1 X-1.7 Y20 Z0.28 F1500.0 E30 ;Draw the second line
G92 E0 ;Reset Extruder
G1 E-1 F1800 ;Retract a bit
G1 Z2.0 F3000 ;Move Z Axis up
G1 E0 F1800
G92 E0
G92 E0
G1 F2400 E-0.8
;LAYER_COUNT:87
;LAYER:0
M107
G0 F9000 X76.11 Y95.822 Z0.32
;TYPE:SKIRT
G1 F2400 E0
G1 F6000 X77.059 Y95.121 E0.15697
G1 X77.99 Y94.556 E0.30185
G1 X78.967 Y94.073 E0.44685
G1 X79.985 Y93.676 E0.59222
G1 X81.031 Y93.371 E0.73717
G1 X82.098 Y93.158 E0.88193
G1 X83.14 Y93.039 E1.02146
G1 X83.673 Y93.013 E1.09245
G1 X84.288 Y93 E1.17429
G1 X135.319 Y93 E7.96348
G1 X136.167 Y93.011 E8.07631
G1 X137.35 Y93.086 E8.23401
G1 X138.427 Y93.252 E8.37899
G1 X139.486 Y93.511 E8.52403
G1 X140.519 Y93.861 E8.66914
G1 X141.519 Y94.301 E8.81449
G1 X142.473 Y94.824 E8.95923
G1 X143.382 Y95.431 E9.10465
G1 X144.229 Y96.11 E9.24907
G1 X144.957 Y96.802 E9.3827
G1 X145.682 Y97.618 E9.52792
G1 X146.383 Y98.567 E9.68488
G1 X146.948 Y99.496 E9.82954
G1 X147.359 Y100.315 E9.95145
G1 X147.767 Y101.321 E10.09588
G1 X148.109 Y102.454 E10.25333
G1 X148.343 Y103.61 E10.41025
G1 X148.461 Y104.648 E10.54923
G1 X148.487 Y105.174 E10.6193
G1 X148.5 Y105.83 E10.70659
G1 X148.499 Y113.918 E11.78262
G1 X148.49 Y114.645 E11.87935
G1 X148.418 Y115.826 E12.03676
G1 X148.255 Y116.903 E12.18168
G1 X148.022 Y117.88 E12.3153
G1 X147.648 Y118.997 E12.47202
G1 X147.212 Y119.995 E12.61691
G1 X146.689 Y120.954 E12.76224
G1 X146.085 Y121.862 E12.90732
G1 X145.404 Y122.714 E13.05243
G1 X144.713 Y123.443 E13.18606
G1 X143.836 Y124.221 E13.34204
G1 X143.102 Y124.77 E13.46398
G1 X142.102 Y125.393 E13.62073
G1 X141.045 Y125.922 E13.77798
G1 X140.028 Y126.32 E13.92327
G1 X138.983 Y126.626 E14.06814
G1 X137.916 Y126.84 E14.21292
G1 X136.873 Y126.96 E14.3526
G1 X136.326 Y126.987 E14.42546
G1 X135.67 Y127 E14.51275
G1 X84.546 Y126.999 E21.31431
G1 X83.848 Y126.99 E21.40718
G1 X82.673 Y126.918 E21.5638
G1 X81.766 Y126.787 E21.68572
G1 X80.53 Y126.495 E21.85468
G1 X79.499 Y126.147 E21.99945
G1 X78.497 Y125.709 E22.14494
G1 X77.616 Y125.231 E22.27829
G1 X76.631 Y124.58 E22.43537
G1 X75.782 Y123.9 E22.58008
G1 X74.992 Y123.146 E22.72537
G1 X74.273 Y122.328 E22.87026
G1 X73.625 Y121.448 E23.01566
G1 X73.059 Y120.517 E23.16061
G1 X72.611 Y119.62 E23.294
G1 X72.178 Y118.521 E23.45115
G1 X71.873 Y117.477 E23.59585
G1 X71.659 Y116.408 E23.7409
G1 X71.54 Y115.367 E23.88029
G1 X71.513 Y114.816 E23.95369
G1 X71.5 Y114.158 E24.04124
G1 X71.501 Y106.004 E25.12606
G1 X71.51 Y105.339 E25.21454
G1 X71.582 Y104.164 E25.37115
G1 X71.714 Y103.257 E25.49309
G1 X71.982 Y102.111 E25.64967
G1 X72.354 Y100.994 E25.8063
G1 X72.755 Y100.072 E25.94006
G1 X73.318 Y99.036 E26.09693
G1 X73.871 Y98.198 E26.23051
G1 X74.549 Y97.341 E26.37589
G1 X75.358 Y96.488 E26.53229
G1 X76.11 Y95.822 E26.66593
G0 F9000 X76.773 Y96.571
G1 F6000 X77.581 Y95.974 E26.79959
G1 X78.436 Y95.451 E26.93293
G1 X79.334 Y95.003 E27.06645
G1 X80.268 Y94.635 E27.2
G1 X81.23 Y94.351 E27.33345
G1 X82.213 Y94.151 E27.46691
G1 X83.19 Y94.038 E27.59775
G1 X83.694 Y94.013 E27.66489
G1 X84.309 Y94 E27.74673
G1 X135.306 Y94 E34.5314
G1 X136.154 Y94.011 E34.64422
G1 X137.201 Y94.075 E34.78378
G1 X138.193 Y94.224 E34.91723
G1 X139.168 Y94.459 E35.05066
G1 X140.12 Y94.778 E35.18424
G1 X141.041 Y95.179 E35.31788
G1 X141.921 Y95.658 E35.45118
G1 X142.759 Y96.213 E35.5849
G1 X143.543 Y96.838 E35.71829
G1 X144.209 Y97.466 E35.84007
G1 X144.934 Y98.282 E35.98529
G1 X145.53 Y99.089 E36.11876
G1 X146.054 Y99.945 E36.25229
G1 X146.465 Y100.764 E36.3742
G1 X146.839 Y101.694 E36.50756
G1 X147.151 Y102.74 E36.65278
G1 X147.35 Y103.724 E36.78634
G1 X147.462 Y104.698 E36.91677
G1 X147.487 Y105.194 E36.98285
G1 X147.5 Y105.83 E37.06748
G1 X147.499 Y113.906 E38.14191
G1 X147.49 Y114.633 E38.23864
G1 X147.429 Y115.679 E38.37804
G1 X147.282 Y116.671 E38.51146
G1 X147.049 Y117.648 E38.64508
G1 X146.731 Y118.599 E38.77849
G1 X146.332 Y119.519 E38.9119
G1 X145.854 Y120.403 E39.0456
G1 X145.302 Y121.24 E39.17899
G1 X144.678 Y122.026 E39.31251
G1 X143.987 Y122.755 E39.44614
G1 X143.237 Y123.42 E39.5795
G1 X142.503 Y123.969 E39.70144
G1 X141.576 Y124.543 E39.8465
G1 X140.678 Y124.992 E39.98007
G1 X139.744 Y125.361 E40.11368
G1 X138.783 Y125.646 E40.24703
G1 X137.8 Y125.847 E40.38052
G1 X136.823 Y125.961 E40.51138
G1 X136.306 Y125.987 E40.58025
G1 X135.67 Y126 E40.66488
G1 X84.559 Y125.999 E47.46471
G1 X83.861 Y125.99 E47.55758
G1 X82.816 Y125.928 E47.69686
G1 X81.909 Y125.797 E47.81878
G1 X80.847 Y125.547 E47.96393
G1 X79.896 Y125.229 E48.09734
G1 X78.974 Y124.83 E48.23099
G1 X78.093 Y124.352 E48.36434
G1 X77.254 Y123.798 E48.4981
G1 X76.47 Y123.174 E48.63141
G1 X75.741 Y122.483 E48.76504
G1 X75.076 Y121.732 E48.8985
G1 X74.478 Y120.926 E49.03202
G1 X73.954 Y120.07 E49.16554
G1 X73.506 Y119.173 E49.29894
G1 X73.137 Y118.238 E49.43267
G1 X72.853 Y117.277 E49.56598
G1 X72.652 Y116.293 E49.6996
G1 X72.539 Y115.317 E49.83031
G1 X72.513 Y114.796 E49.89971
G1 X72.5 Y114.158 E49.98461
G1 X72.501 Y106.018 E51.06756
G1 X72.51 Y105.353 E51.15604
G1 X72.572 Y104.308 E51.29531
G1 X72.704 Y103.401 E51.41725
G1 X72.955 Y102.341 E51.56218
G1 X73.273 Y101.389 E51.69571
G1 X73.635 Y100.547 E51.81764
G1 X74.153 Y99.587 E51.96277
G1 X74.706 Y98.749 E52.09634
G1 X75.331 Y97.964 E52.22984
G1 X76.021 Y97.237 E52.36319
G1 X76.773 Y96.571 E52.49683
G0 F9000 X77.371 Y97.373
G1 F6000 X78.106 Y96.825 E52.6188
G1 X78.886 Y96.344 E52.74072
G1 X79.704 Y95.932 E52.86257
G1 X80.555 Y95.593 E52.98444
G1 X81.433 Y95.33 E53.10638
G1 X82.33 Y95.144 E53.22825
G1 X83.24 Y95.037 E53.35015
G1 X83.715 Y95.013 E53.41343
G1 X84.33 Y95 E53.49527
G1 X135.293 Y95 E60.27541
G1 X136.141 Y95.011 E60.38824
G1 X137.056 Y95.064 E60.51018
G1 X137.963 Y95.197 E60.63213
G1 X138.854 Y95.408 E60.75395
G1 X139.724 Y95.696 E60.87587
G1 X140.566 Y96.059 E60.99786
G1 X141.372 Y96.494 E61.11971
G1 X142.138 Y96.997 E61.24163
G1 X142.857 Y97.566 E61.36361
G1 X143.523 Y98.194 E61.4854
G1 X144.132 Y98.879 E61.60734
G1 X144.679 Y99.614 E61.72923
G1 X145.16 Y100.394 E61.85115
G1 X145.571 Y101.213 E61.97306
G1 X145.91 Y102.064 E62.09493
G1 X146.172 Y102.942 E62.21683
G1 X146.357 Y103.84 E62.33881
G1 X146.463 Y104.75 E62.46069
G1 X146.487 Y105.215 E62.52264
G1 X146.5 Y105.83 E62.60448
G1 X146.499 Y113.894 E63.67732
G1 X146.49 Y114.621 E63.77405
G1 X146.439 Y115.536 E63.89597
G1 X146.308 Y116.443 E64.01789
G1 X146.099 Y117.335 E64.13977
G1 X145.812 Y118.205 E64.26165
G1 X145.451 Y119.047 E64.38353
G1 X145.018 Y119.855 E64.50549
G1 X144.516 Y120.621 E64.62734
G1 X143.949 Y121.341 E64.74926
G1 X143.321 Y122.009 E64.87124
G1 X142.638 Y122.619 E64.99307
G1 X141.904 Y123.168 E65.11502
G1 X141.125 Y123.65 E65.23689
G1 X140.307 Y124.063 E65.3588
G1 X139.456 Y124.403 E65.48072
G1 X138.579 Y124.667 E65.60257
G1 X137.682 Y124.854 E65.72447
G1 X136.772 Y124.962 E65.84639
G1 X136.285 Y124.987 E65.91126
G1 X135.67 Y125 E65.9931
G1 X84.572 Y124.999 E72.79121
G1 X83.874 Y124.99 E72.88408
G1 X82.959 Y124.938 E73.00601
G1 X82.052 Y124.807 E73.12793
G1 X81.16 Y124.597 E73.24984
G1 X80.29 Y124.31 E73.37172
G1 X79.448 Y123.949 E73.49361
G1 X78.641 Y123.515 E73.61551
G1 X77.874 Y123.013 E73.73747
G1 X77.155 Y122.445 E73.85937
G1 X76.487 Y121.817 E73.98135
G1 X75.877 Y121.134 E74.10318
G1 X75.329 Y120.4 E74.22504
G1 X74.847 Y119.62 E74.34703
G1 X74.435 Y118.802 E74.46888
G1 X74.095 Y117.951 E74.5908
G1 X73.832 Y117.073 E74.71274
G1 X73.645 Y116.176 E74.83464
G1 X73.538 Y115.266 E74.95654
G1 X73.513 Y114.775 E75.02195
G1 X73.5 Y114.158 E75.10405
G1 X73.501 Y106.032 E76.18514
G1 X73.51 Y105.367 E76.27362
G1 X73.562 Y104.452 E76.39555
G1 X73.694 Y103.545 E76.51749
G1 X73.905 Y102.654 E76.63931
G1 X74.192 Y101.784 E76.76119
G1 X74.554 Y100.942 E76.88312
G1 X74.989 Y100.135 E77.00509
G1 X75.491 Y99.369 E77.12693
G1 X76.059 Y98.65 E77.24884
G1 X76.687 Y97.983 E77.37072
G1 X77.371 Y97.373 E77.49265
G1 F2400 E76.69265
;MESH:Unbenannt.stl
G0 F9000 X134.5 Y113
;TYPE:WALL-INNER
G1 F2400 E77.49265
G1 F6000 X134.5 Y107 E78.29089
G1 X85.5 Y107 E84.80988
G1 X85.5 Y113 E85.60812
G1 X134.5 Y113 E92.12711
G0 F9000 X135.5 Y114
;TYPE:WALL-OUTER
G1 F6000 X135.5 Y106 E93.19143
G1 X84.5 Y106 E99.9765
G1 X84.5 Y114 E101.04082
G1 X135.5 Y114 E107.82589
G1 F2400 E107.02589
G0 F9000 X133.6 Y112.1
;TYPE:SKIN
G1 F2400 E107.82589
G1 F6000 X86.4 Y112.1 E114.1054
G1 X86.4 Y107.9 E114.66417
G1 X133.6 Y107.9 E120.94369
G1 X133.6 Y112.1 E121.50246
G1 F2400 E120.70246
G0 F9000 X132.442 Y108.4
G1 F2400 E121.50246
G1 F6000 X133.1 Y109.058 E121.62626
G0 F9000 X133.1 Y110.473
G1 F6000 X131.028 Y108.4 E122.0162
G0 F9000 X129.613 Y108.4
G1 F6000 X132.813 Y111.6 E122.61827
G0 F9000 X131.399 Y111.6
G1 F6000 X128.199 Y108.4 E123.22034
G0 F9000 X126.785 Y108.4
G1 F6000 X129.985 Y111.6 E123.82241
G0 F9000 X128.57 Y111.6
G1 F6000 X125.371 Y108.4 E124.42439
G0 F9000 X123.957 Y108.4
G1 F6000 X127.156 Y111.6 E125.02637
G0 F9000 X125.742 Y111.6
G1 F6000 X122.542 Y108.4 E125.62844
G0 F9000 X121.128 Y108.4
G1 F6000 X124.328 Y111.6 E126.23052
G0 F9000 X122.914 Y111.6
G1 F6000 X119.714 Y108.4 E126.83259
G0 F9000 X118.3 Y108.4
G1 F6000 X121.499 Y111.6 E127.43457
G0 F9000 X120.085 Y111.6
G1 F6000 X116.885 Y108.4 E128.03664
G0 F9000 X115.471 Y108.4
G1 F6000 X118.671 Y111.6 E128.63871
G0 F9000 X117.257 Y111.6
G1 F6000 X114.057 Y108.4 E129.24079
G0 F9000 X112.643 Y108.4
G1 F6000 X115.842 Y111.6 E129.84277
G0 F9000 X114.428 Y111.6
G1 F6000 X111.229 Y108.4 E130.44474
G0 F9000 X109.814 Y108.4
G1 F6000 X113.014 Y111.6 E131.04682
G0 F9000 X111.6 Y111.6
G1 F6000 X108.4 Y108.4 E131.64889
G0 F9000 X106.986 Y108.4
G1 F6000 X110.186 Y111.6 E132.25096
G0 F9000 X108.771 Y111.6
G1 F6000 X105.572 Y108.4 E132.85294
G0 F9000 X104.158 Y108.4
G1 F6000 X107.357 Y111.6 E133.45492
G0 F9000 X105.943 Y111.6
G1 F6000 X102.743 Y108.4 E134.05699
G0 F9000 X101.329 Y108.4
G1 F6000 X104.529 Y111.6 E134.65907
G0 F9000 X103.115 Y111.6
G1 F6000 X99.915 Y108.4 E135.26114
G0 F9000 X98.501 Y108.4
G1 F6000 X101.7 Y111.6 E135.86312
G0 F9000 X100.286 Y111.6
G1 F6000 X97.086 Y108.4 E136.46519
G0 F9000 X95.672 Y108.4
G1 F6000 X98.872 Y111.6 E137.06726
G0 F9000 X97.458 Y111.6
G1 F6000 X94.258 Y108.4 E137.66934
G0 F9000 X92.844 Y108.4
G1 F6000 X96.043 Y111.6 E138.27131
G0 F9000 X94.629 Y111.6
G1 F6000 X91.43 Y108.4 E138.87329
G0 F9000 X90.015 Y108.4
G1 F6000 X93.215 Y111.6 E139.47537
G0 F9000 X91.801 Y111.6
G1 F6000 X88.601 Y108.4 E140.07744
G0 F9000 X87.187 Y108.4
G1 F6000 X90.387 Y111.6 E140.67951
G0 F9000 X88.972 Y111.6
G1 F6000 X86.9 Y109.527 E141.06945
G0 F9000 X86.9 Y110.942
G1 F6000 X87.558 Y111.6 E141.19325
M104 S200
G1 F2400 E140.39325
;MESH:NONMESH
G0 F300 X87.558 Y111.6 Z0.64
G0 F9000 X77.371 Y97.373
;TIME_ELAPSED:23.382449
;LAYER:1
M106 S127.5
;TYPE:SKIRT
G1 F2400 E141.19325
G1 F4301.2 X78.106 Y96.825 E141.31522
G1 X78.886 Y96.344 E141.43714
G1 X79.704 Y95.932 E141.55899
G1 X80.555 Y95.593 E141.68086
G1 X81.433 Y95.33 E141.8028
G1 X82.33 Y95.144 E141.92467
G1 X83.24 Y95.037 E142.04657
G1 X83.715 Y95.013 E142.10985
G1 X84.33 Y95 E142.19169
G1 X135.293 Y95 E148.97183
G1 X136.141 Y95.011 E149.08466
G1 X137.056 Y95.064 E149.20659
G1 X137.963 Y95.197 E149.32855
G1 X138.854 Y95.408 E149.45037
G1 X139.724 Y95.696 E149.57229
G1 X140.566 Y96.059 E149.69428
G1 X141.372 Y96.494 E149.81613
G1 X142.138 Y96.997 E149.93805
G1 X142.857 Y97.566 E150.06003
G1 X143.523 Y98.194 E150.18182
G1 X144.132 Y98.879 E150.30376
G1 X144.679 Y99.614 E150.42565
G1 X145.16 Y100.394 E150.54757
G1 X145.571 Y101.213 E150.66948
G1 X145.91 Y102.064 E150.79135
G1 X146.172 Y102.942 E150.91325
G1 X146.357 Y103.84 E151.03523
G1 X146.463 Y104.75 E151.15711
G1 X146.487 Y105.215 E151.21906
G1 X146.5 Y105.83 E151.3009
G1 X146.499 Y113.894 E152.37374
G1 X146.49 Y114.621 E152.47046
G1 X146.439 Y115.536 E152.59238
G1 X146.308 Y116.443 E152.7143
G1 X146.099 Y117.335 E152.83619
G1 X145.812 Y118.205 E152.95807
G1 X145.451 Y119.047 E153.07995
G1 X145.018 Y119.855 E153.20191
G1 X144.516 Y120.621 E153.32376
G1 X143.949 Y121.341 E153.44568
G1 X143.321 Y122.009 E153.56766
G1 X142.638 Y122.619 E153.68949
G1 X141.904 Y123.168 E153.81144
G1 X141.125 Y123.65 E153.93331
G1 X140.307 Y124.063 E154.05522
G1 X139.456 Y124.403 E154.17714
G1 X138.579 Y124.667 E154.29899
G1 X137.682 Y124.854 E154.42089
G1 X136.772 Y124.962 E154.54281
G1 X136.285 Y124.987 E154.60768
G1 X135.67 Y125 E154.68952
G1 X84.572 Y124.999 E161.48763
G1 X83.874 Y124.99 E161.5805
G1 X82.959 Y124.938 E161.70243
G1 X82.052 Y124.807 E161.82435
G1 X81.16 Y124.597 E161.94626
G1 X80.29 Y124.31 E162.06814
G1 X79.448 Y123.949 E162.19002
G1 X78.641 Y123.515 E162.31193
G1 X77.874 Y123.013 E162.43388
G1 X77.155 Y122.445 E162.55579
G1 X76.487 Y121.817 E162.67777
G1 X75.877 Y121.134 E162.7996
G1 X75.329 Y120.4 E162.92146
G1 X74.847 Y119.62 E163.04345
G1 X74.435 Y118.802 E163.1653
G1 X74.095 Y117.951 E163.28722
G1 X73.832 Y117.073 E163.40916
G1 X73.645 Y116.176 E163.53106
G1 X73.538 Y115.266 E163.65296
G1 X73.513 Y114.775 E163.71837
G1 X73.5 Y114.158 E163.80047
G1 X73.501 Y106.032 E164.88156
G1 X73.51 Y105.367 E164.97004
G1 X73.562 Y104.452 E165.09197
G1 X73.694 Y103.545 E165.21391
G1 X73.905 Y102.654 E165.33572
G1 X74.192 Y101.784 E165.45761
G1 X74.554 Y100.942 E165.57954
G1 X74.989 Y100.135 E165.70151
G1 X75.491 Y99.369 E165.82335
G1 X76.059 Y98.65 E165.94526
G1 X76.687 Y97.983 E166.06714
G1 X77.371 Y97.373 E166.18907
G1 F2400 E165.38907
;MESH:Unbenannt.stl
G0 F12000 X134.5 Y113
;TYPE:WALL-INNER
G1 F2400 E166.18907
G1 F4301.2 X134.5 Y107 E166.98731
G1 X85.5 Y107 E173.5063
G1 X85.5 Y113 E174.30454
G1 X134.5 Y113 E180.82353
G0 F12000 X135.5 Y114
;TYPE:WALL-OUTER
G1 F4301.2 X135.5 Y106 E181.88785
G1 X84.5 Y106 E188.67292
G1 X84.5 Y114 E189.73724
G1 X135.5 Y114 E196.52231
G1 F2400 E195.72231
G0 F12000 X133.6 Y112.1
;TYPE:SKIN
G1 F2400 E196.52231
G1 F4301.2 X86.4 Y112.1 E202.80182
G1 X86.4 Y107.9 E203.36059
G1 X133.6 Y107.9 E209.64011
G1 X133.6 Y112.1 E210.19888
G1 F2400 E209.39888
G0 F12000 X133.1 Y110.145
G1 F2400 E210.19888
G1 F4301.2 X131.644 Y111.601 E210.47282
G0 F12000 X130.23 Y111.601
G1 F4301.2 X133.1 Y108.73 E211.0129
G0 F12000 X132.017 Y108.399
G1 F4301.2 X128.816 Y111.601 E211.61525
G0 F12000 X127.402 Y111.601
G1 F4301.2 X130.603 Y108.399 E212.21761
G0 F12000 X129.188 Y108.399
G1 F4301.2 X125.987 Y111.601 E212.81996
G0 F12000 X124.573 Y111.601
G1 F4301.2 X127.774 Y108.399 E213.42232
G0 F12000 X126.36 Y108.399
G1 F4301.2 X123.159 Y111.601 E214.02467
G0 F12000 X121.745 Y111.601
G1 F4301.2 X124.946 Y108.399 E214.62703
G0 F12000 X123.532 Y108.399
G1 F4301.2 X120.33 Y111.601 E215.22948
G0 F12000 X118.916 Y111.601
G1 F4301.2 X122.117 Y108.399 E215.83183
G0 F12000 X120.703 Y108.399
G1 F4301.2 X117.502 Y111.601 E216.43419
G0 F12000 X116.088 Y111.601
G1 F4301.2 X119.289 Y108.399 E217.03654
G0 F12000 X117.875 Y108.399
G1 F4301.2 X114.674 Y111.601 E217.6389
G0 F12000 X113.259 Y111.601
G1 F4301.2 X116.46 Y108.399 E218.24125
G0 F12000 X115.046 Y108.399
G1 F4301.2 X111.845 Y111.601 E218.84361
G0 F12000 X110.431 Y111.601
G1 F4301.2 X113.632 Y108.399 E219.44596
G0 F12000 X112.218 Y108.399
G1 F4301.2 X109.017 Y111.601 E220.04832
G0 F12000 X107.603 Y111.601
G1 F4301.2 X110.804 Y108.399 E220.65067
G0 F12000 X109.389 Y108.399
G1 F4301.2 X106.188 Y111.601 E221.25303
G0 F12000 X104.774 Y111.601
G1 F4301.2 X107.975 Y108.399 E221.85538
G0 F12000 X106.561 Y108.399
G1 F4301.2 X103.36 Y111.601 E222.45774
G0 F12000 X101.946 Y111.601
G1 F4301.2 X105.147 Y108.399 E223.06009
G0 F12000 X103.733 Y108.399
G1 F4301.2 X100.531 Y111.601 E223.66254
G0 F12000 X99.117 Y111.601
G1 F4301.2 X102.318 Y108.399 E224.2649
G0 F12000 X100.904 Y108.399
